X:1
T:Old Mother Goose
M:9/8
L:1/8
R:Jig
S:White's Unique Collection (1896), No. 24
Z:AK/Fiddler's Companion
K:G
(g2d) (d2c) (Bc)d | e2A ABG FED | (g2d) (d2c) (Bc)d | efg (fe).f g3 |
(g2d) (d2c) (Bc)d | e2A ABG FED | (g2d) (d2c) (Bc)d | efg (fe)f g3 ||
B2c dec dcB | B2d efd edc | B2c dec dcB | c2B AGF G3 |
B2c dec dcB | B2d efd edc | B2c dec dcB | c2B AGF G3 ||

